X: 148
T: She Stands There Smiling
C: Teton Sioux band 1911-1914
N: Derived from sioux144.krn
O: South Dakota, U.S.A.
N: Teton Sioux Music by Frances Densmore, 1918
Z: transcribed to **kern format by Craig Sapp
L: 1/8
M: 2/4
Q: 1/4=58
K: F clef=bass
%%linebreak <none>
(3C C C [I:setbarnb 1]| 
(3F F F F C ||  
[M:3/4]C2A,2C C | 
C2A,2A, A, | 
A,2F,2A, A, ||  
[M:2/4]C2A,2 | 
G, A, A, G, ||  
[M:3/4]F, F,2<F,2F, | 
F,4z2 ||  
[M:2/4]A, C C C ||  
[M:3/4]C F F F F C | 
C2A,2C C | 
C2A,2A,2 | 
A,2F,2A, A, ||  
[M:2/4]C CA,2 | 
G, A, A,/> A,/ G, ||  
[M:3/4]F, F,F,4 | 
F,2z4 |]  



